X: 69
T:The Cup of Tea
R: Reel
N: page 23
N: heptatonic
M:C
L:1/8
K:D
"G"BAGF "Em"GEEF |GEBE GEEA|"G"BAGF "Em"GEEG|"D"FDAG FDDA|
 "G"BAGF "Em" GEEF |GEBE GEEA |"G"B2BA GABc|dBAG "D"FD "D" D2 ::
 "D"d2 (3efg fdec|d2 (3efg "Bm"fB B2| "D"d2 (3efg fdec|"G"dBAG "D"FD D2|
d2 eg fdec|dfaf "G"g2 fg|"D"af (3gfe fdec|"G"dBAG "D"FA D2 ::
"D"FAdA FABA|FAdA "Em"FE E2|"D"FAdA "Bm"FABc|"G"dBAG "D"FD D2|
FAdA FABA|FAde "Em"fe eg|"D"fdec dBAF|"G"GBAG "D"FD D2 :|
